**kern	**silbe	**kern	**silbe
*ICvox	*	*ICvox	*
=1	=1	=1	=1
*C:	*	*C:	*
*M12/8	*	*M12/8	*
*clefG2	*	*clefG2	*
1.r	.	1.r	.
=2	=2	=2	=2
1.r	.	1.r	.
=3	=3	=3	=3
1.r	.	1.r	.
=4	=4	=4	=4
1.r	.	[2.e [a [cc	Oh
.	.	4.e] a] cc]	_
.	.	4.d g b	_
=5	=5	=5	=5
1.r	.	[4.c [e [g	_
.	.	4c] e] g]	!
.	.	8r	.
.	.	2.r	.
=6	=6	=6	=6
1.r	.	[2.e [a [cc	Oh
.	.	4.e] a] cc]	_
.	.	4.d g b	_
=7	=7	=7	=7
1.r	.	[4.c [e [g	_
.	.	8c] e] g]	!
.	.	4r	.
.	.	2.r	.
=8	=8	=8	=8
4.r	.	2.r	.
16g	I	.	.
[16g	don't	.	.
16g]	_	.	.
[16a	mind	.	.
8a_	_	.	.
4a]	_	8r	.
.	.	16e a cc	I
.	.	16e a cc	don't
8bb	!	16e a cc	mind!
.	.	16r	.
4.r	.	4.r	.
=9	=9	=9	=9
4.r	.	1.r	.
8r	.	.	.
8c	Your	.	.
[8c	love	.	.
4.c]	_	.	.
4.r	.	.	.
=10	=10	=10	=10
4.r	.	2.r	.
16g	I	.	.
[16g	don't	.	.
16g]	_	.	.
[16a	mind	.	.
8a_	_	.	.
8a]	_	8r	.
8gg	!	16e a cc	I
.	.	16e a cc	don't
8r	.	16e a cc	mind!
.	.	16r	.
4.r	.	4.r	.
=11	=11	=11	=11
*clefF4	*	*	*
8r	.	1.r	.
16G	The	.	.
8e-	one	.	.
[16d	you're	.	.
8d]	_	.	.
8c	thin-	.	.
16d	-king	.	.
[16c	of	.	.
4c]	_	.	.
8r	.	.	.
16.r	.	.	.
32A	But	.	.
8f#	I	.	.
8f	know	.	.
=12	=12	=12	=12
4e-	_	[2.c [f [a	_
8G	...	.	.
4.r	.	.	.
4.r	.	4.c] f] a]	_
8r	.	4.B e g	_
[4B	I	.	.
=13	=13	=13	=13
8B_	_	[4.A [d [f#	_
16B]	_	.	.
16c	_	.	.
[8B	_	.	.
8B]	_	4A] d] f#]	_
[4A	know	.	.
.	.	8r	.
8A]	...	2.r	.
4r	.	.	.
4.r	.	.	.
=14	=14	=14	=14
2.r	.	1.r	.
8r	.	.	.
16c	you're	.	.
8B	gon-	.	.
16A	-na	.	.
8B	miss	.	.
8c	me	.	.
8A	_	.	.
=15	=15	=15	=15
*clefG2	*	*	*
1.r	.	1.r	.
=16	=16	=16	=16
4.r	.	2.r	.
16g	I	.	.
[16g	don't	.	.
16g]	_	.	.
[16a	mind	.	.
8a_	_	.	.
8a]	_	8r	.
8gg	!	16e a cc	I
.	.	16e a cc	don't
8r	.	16e a cc	mind!
.	.	16r	.
4.r	.	4.r	.
=17	=17	=17	=17
*clefF4	*	*	*
4.r	.	1.r	.
8r	.	.	.
16G	Your	.	.
[16e	love	.	.
8e_	_	.	.
8e]	_	.	.
16d	sick	.	.
[16c	soul	.	.
8c_	_	.	.
4.c]	_	.	.
=18	=18	=18	=18
*clefG2	*	*	*
4.r	.	2.r	.
16g	I	.	.
[16g	don't	.	.
16g]	_	.	.
[16a	mind	.	.
8a_	_	.	.
16a]	_	8r	.
16gg	!	.	.
4r	.	16e a cc	I
.	.	16e a cc	don't
.	.	16e a cc	mind
.	.	16r	.
4.r	.	4.r	.
=19	=19	=19	=19
*clefF4	*	*	*
4.r	.	1.r	.
8r	.	.	.
8F	It	.	.
[8e	can't	.	.
8e]	_	.	.
8c	grow	.	.
[8c	cold	.	.
8c]	_	.	.
16f	I	.	.
[16e-	know	.	.
8e-_	_	.	.
=20	=20	=20	=20
4e-]	...	[2.c [f [a	Yee
8r	.	.	.
4.r	.	.	.
4.r	.	4.c] f] a]	_
4r	.	4.B e g	_
[8B	I	.	.
=21	=21	=21	=21
8B_	_	[4.A [d [f#	_
16B]	_	.	.
16c	_	.	.
[8B	_	.	.
8B]	_	4A] d] f#]	...
[4A	know	.	.
.	.	8r	.
8A]	...	2.r	.
4r	.	.	.
4.r	.	.	.
=22	=22	=22	=22
4.r	.	1.r	.
4.r	.	.	.
8r	.	.	.
8e	You	.	.
16c	gon-	.	.
16A	-na	.	.
8c	miss	.	.
8c	me	.	.
8A	_	.	.
=23	=23	=23	=23
1.r	.	1.r	.
=24	=24	=24	=24
1.r	.	[2.e [a [cc	Yee
.	.	4.e] a] cc]	_
.	.	4.d g b	_
=25	=25	=25	=25
4.r	.	[4.c [e [g	_
4.r	.	4c] e] g]	_
.	.	8r	.
8r	.	2.r	.
8e-	Yeah,	.	.
8c	yeah,	.	.
8c	yeah	.	.
8A	...	.	.
8r	.	.	.
=26	=26	=26	=26
1.r	.	[2.e [a [cc	Yee
.	.	4.e] a] cc]	_
.	.	4.d g b	_
=27	=27	=27	=27
4r	.	[4.c [e [g	_
8e	Some-	.	.
8c	-where	8c] e] g]	_
8d	down	4r	.
16c	the	.	.
16A	line	.	.
4c	_	2.r	.
8r	.	.	.
4.r	.	.	.
=28	=28	=28	=28
1.r	.	[2.c [f [a	Yee
.	.	4.c] f] a]	_
.	.	4.B e g	_
=29	=29	=29	=29
4r	.	[4.A [d [f#	_
[8c	Mmm	.	.
4.c_	_	4A] d] f#]	...
.	.	8r	.
8c]	_	2.r	.
8A	...	.	.
8r	.	.	.
4.r	.	.	.
=30	=30	=30	=30
1.r	.	1.r	.
=31	=31	=31	=31
1.r	.	1.r	.
=32	=32	=32	=32
*clefG2	*	*	*
4.r	.	2.r	.
16g	I	.	.
[16g	don't	.	.
16g]	_	.	.
[16a	mind	.	.
8a_	_	.	.
16a]	_	8r	.
16gg	!	.	.
4r	.	16e a cc	I
.	.	16e a cc	don't
.	.	16e a cc	mind
.	.	16r	.
4.r	.	4.r	.
=33	=33	=33	=33
4.r	.	1.r	.
8r	.	.	.
16e-	This	.	.
16e-	is	.	.
8e	all	.	.
16d	of	.	.
16c	_	.	.
8d	my	.	.
[8c	song	.	.
4c]	_	.	.
8r	.	.	.
=34	=34	=34	=34
4.r	.	2.r	.
16g	I	.	.
[16g	don't	.	.
16g]	_	.	.
[16a	mind	.	.
8a_	_	.	.
16a]	_	8r	.
16ff	!	.	.
4r	.	16e a cc	I
.	.	16e a cc	don't
.	.	16e a cc	mind
.	.	16r	.
8r	.	4.r	.
4r	.	.	.
=35	=35	=35	=35
8r	.	1.r	.
16e-	Good-	.	.
[16e	-bye	.	.
8e_	_	.	.
8e]	,	.	.
16c	so	.	.
[16c	long	.	.
8c_	_	.	.
4c]	_	.	.
8r	.	.	.
8r	.	.	.
16c	But	.	.
16g	I	.	.
8f	know	.	.
=36	=36	=36	=36
4e-	_	[2.c [f [a	Yee
8G	....	.	.
4.r	.	.	.
4.r	.	4.c] f] a]	_
8r	.	4.B e g	_
[4B	I	.	.
=37	=37	=37	=37
4.B_	_	[4.A [d [f#	_
8B]	_	4A] d] f#]	...
4A	know...	.	.
.	.	8r	.
2.r	.	2.r	.
=38	=38	=38	=38
2.r	.	1.r	.
8r	.	.	.
8c	You	.	.
16c	gon-	.	.
16A	-na	.	.
8c	miss	.	.
8c	me	.	.
8A	_	.	.
=39	=39	=39	=39
1.r	.	1.r	.
=40	=40	=40	=40
4.r	.	[2.e [a [cc	Oh
8r	.	.	.
8cc	Good-	.	.
[8cc	-bye	.	.
4cc]	,	4.e] a] cc]	_
16a	so	.	.
16g	_	.	.
8cc	long	4.d g b	_
16a	_	.	.
16g	!	.	.
8r	.	.	.
=41	=41	=41	=41
*clefF4	*	*	*
4.r	.	[4.c [e [g	_
16.c	Mm,	4c] e] g]	_
16.e	no,	.	.
16.d	no,	.	.
.	.	8r	.
16.c	no,	.	.
16.A	I	2.r	.
16.c	don't	.	.
[16d	mind	.	.
8d]	_	.	.
4e	_	.	.
8r	.	.	.
=42	=42	=42	=42
*clefG2	*	*	*
4.r	.	[2.e [a [cc	Oh
16r	.	.	.
16a	A'-	.	.
16cc	-good-	.	.
[16cc	-bye,	.	.
8cc]	_	.	.
16cc	so	4.e] a] cc]	_
16a	_	.	.
8cc	long	.	.
16a	_	.	.
[16g	_	.	.
8g]	!	4.d g b	_
4r	.	.	.
=43	=43	=43	=43
1.r	.	[4.c [e [g	_
.	.	4c] e] g]	_
.	.	8r	.
.	.	2.r	.
=44	=44	=44	=44
1.r	.	1.e; a cc	Oh!
*-	*-	*-	*-
!!!ENC: Nathaniel Condit-Schultz
